X: 28042
T: Moxham Castle
R: strathspey
M: 4/4
K: Gmajor
D>B,G,>B, G>DB,>D|E<A,A,>D E<A,A,>E|D>B,G,>B, G>DB,>D|C<CD>C B,<G,G,>E|
D>B,G,>B, G>DB,>D|E<A,A,>D E<A,A<c|B>GA>F G>ED>B,|C<CD>C B,<G,G,>B||
d>BG>B d>ed<B|d>BG>B A<EE>B|d>BG>B d>ed<B|c>ed<B G2 G>B|
d>BG>B d>ed<B|g>ba<g a2 a>g|b>ga<f g>ed<B|c>ed<B G2 G>E||

